packages/components/src/telekom/icons/weather/heavy-snow/selected.svg

<?xml version="1.0" encoding="UTF-8"?>
<svg width="24px" height="24px" viewBox="0 0 24 24" version="1.1" xmlns="http://www.w3.org/2000/svg" xmlns:xlink="http://www.w3.org/1999/xlink">
    <title>icon/weather/heavy-snow/selected</title>
    <g id="icon/weather/heavy-snow/selected" stroke="none" stroke-width="1" fill="none" fill-rule="evenodd">
        <path d="M8.34957605,17.806879 L9.64854899,18.5568634 L8.81556634,19.9998333 L10.4990313,19.9998333 L10.4990313,21.4998021 L8.78056707,21.4998021 L9.64854899,23.0027708 L8.34957605,23.7527552 L7.49909377,22.2797858 L6.64861149,23.7527552 L5.34963855,23.0027708 L6.21762047,21.4998021 L4.49915627,21.4998021 L4.49915627,19.9998333 L6.1826212,19.9998333 L5.34963855,18.5568634 L6.64861149,17.806879 L7.49909377,19.2798483 L8.34957605,17.806879 Z M14.8494406,13.3069728 L16.1484136,14.0569571 L15.3154309,15.4999271 L16.9988959,15.4999271 L16.9988959,16.9998958 L15.2804317,16.9998958 L16.1484136,18.5028645 L14.8494406,19.2528489 L13.9989584,17.7798796 L13.1484761,19.2528489 L11.8495031,18.5028645 L12.7174851,16.9998958 L10.9990209,16.9998958 L10.9990209,15.4999271 L12.6824858,15.4999271 L11.8495031,14.0569571 L13.1484761,13.3069728 L13.9989584,14.7799421 L14.8494406,13.3069728 Z M13.5099685,0.547238599 C16.7259015,0.547238599 19.5588425,2.55119685 20.6593196,5.56663403 C22.5462803,6.56061332 23.7482552,8.53757213 23.7482552,10.6940272 C23.7482552,13.7085986 21.4458642,16.1849301 18.5194905,16.4511133 L18.2988688,16.4669069 L18.2988688,14.3779505 C18.2988688,14.0601793 18.1479583,13.763741 17.8970555,13.5764253 L17.7983792,13.5114685 L14.496448,11.6075082 C14.2269536,11.4521989 13.9027182,11.4324024 13.6188686,11.5481188 L13.4999688,11.6060082 L10.2020375,13.4949689 C9.92515434,13.6531878 9.742689,13.9322931 9.70555946,14.2441439 L9.69854795,14.3624508 L9.69854795,16.4729068 L5.22014125,16.4679069 C2.45469886,16.32091 0.248744818,14.016958 0.248744818,11.1980167 C0.248744818,9.28605654 1.28072332,7.53209308 2.91568926,6.6001125 C3.05518635,4.11066436 5.1121435,2.12870565 7.62009125,2.12870565 C7.98908356,2.12870565 8.35707589,2.17370471 8.72006833,2.26220287 C10.0770401,1.15322597 11.762005,0.547238599 13.5099685,0.547238599 Z" id="Shape" fill="#262626"></path>
    </g>
</svg>

<svg width="24" height="24" xmlns="http://www.w3.org/2000/svg"><path d="M8.35 17.807l1.299.75L8.816 20h1.683v1.5H8.781l.868 1.503-1.3.75-.85-1.473-.85 1.473-1.3-.75.869-1.503H4.499V20h1.684l-.833-1.443 1.299-.75.85 1.473.85-1.473zm6.5-4.5l1.298.75-.833 1.443H17V17H15.28l.868 1.503-1.299.75L14 17.78l-.85 1.473-1.3-.75.868-1.503H11v-1.5h1.683l-.832-1.443 1.298-.75L14 14.78l.85-1.473zM13.51.547a7.596 7.596 0 017.15 5.02 5.805 5.805 0 013.088 5.127c0 3.015-2.302 5.49-5.229 5.757l-.22.016v-2.089a1 1 0 00-.402-.802l-.099-.065-3.302-1.903a1.001 1.001 0 00-.877-.06l-.119.058-3.298 1.889a.999.999 0 00-.496.75l-.007.117v2.11l-4.479-.004C2.455 16.32.25 14.017.25 11.198A5.299 5.299 0 012.916 6.6C3.056 4.11 5.112 2.13 7.62 2.13c.37 0 .737.045 1.1.133A7.558 7.558 0 0113.51.547z" fill="#000" fill-rule="evenodd"/></svg>
